build/svg/cmd/sc_toggletitle.svg

<?xml version="1.0" encoding="UTF-8" standalone="no"?>
<svg
   xmlns:dc="http://purl.org/dc/elements/1.1/"
   xmlns:cc="http://creativecommons.org/ns#"
   xmlns:rdf="http://www.w3.org/1999/02/22-rdf-syntax-ns#"
   xmlns:svg="http://www.w3.org/2000/svg"
   xmlns="http://www.w3.org/2000/svg"
   xmlns:sodipodi="http://sodipodi.sourceforge.net/DTD/sodipodi-0.dtd"
   xmlns:inkscape="http://www.inkscape.org/namespaces/inkscape"
   viewBox="0 0 16 16"
   version="1.1"
   id="svg6"
   sodipodi:docname="sc_toggletitle.svg"
   inkscape:export-filename="/home/jupiter007/Libreoffice yaru theme fullcolor/build/cmd/sc_toggletitle.png"
   inkscape:export-xdpi="96"
   inkscape:export-ydpi="96"
   inkscape:version="0.92.5 (2060ec1f9f, 2020-04-08)">
  <metadata
     id="metadata12">
    <rdf:RDF>
      <cc:Work
         rdf:about="">
        <dc:format>image/svg+xml</dc:format>
        <dc:type
           rdf:resource="http://purl.org/dc/dcmitype/StillImage" />
      </cc:Work>
    </rdf:RDF>
  </metadata>
  <defs
     id="defs10" />
  <sodipodi:namedview
     pagecolor="#ffffff"
     bordercolor="#666666"
     borderopacity="1"
     objecttolerance="10"
     gridtolerance="10"
     guidetolerance="10"
     inkscape:pageopacity="0"
     inkscape:pageshadow="2"
     inkscape:window-width="1920"
     inkscape:window-height="1011"
     id="namedview8"
     showgrid="false"
     inkscape:zoom="14.75"
     inkscape:cx="-7.7627119"
     inkscape:cy="7.7966102"
     inkscape:window-x="0"
     inkscape:window-y="32"
     inkscape:window-maximized="1"
     inkscape:current-layer="svg6" />
  <path
     sodipodi:nodetypes="cccscsccccccccscscccccc"
     inkscape:connector-curvature="0"
     id="path4237-1"
     d="m 4.994115,1.9997082 c -1.2582,0.0145 -2.178891,-0.030604 -2.931641,0.3847656 -0.3763701,0.20766 -0.6732311,0.5593869 -0.837891,0.9980469 -0.16467,0.43867 -0.22460895,0.9595875 -0.22460895,1.6171877 v 1.488281 4.5123016 c 0,0.65761 0.0599,1.178577 0.22460895,1.617188 0.1646799,0.438611 0.4615309,0.788525 0.8378911,0.996094 0.75272,0.41513 1.6735409,0.371649 2.9316409,0.386719 h 0.002 6.005861 0.0039 c 1.258191,-0.0145 2.178891,0.0306 2.931642,-0.384766 0.376369,-0.20766 0.67322,-0.559387 0.837891,-0.998047 0.164537,-0.438671 0.224617,-0.959578 0.224617,-1.617188 V 6.4665054 4.9997084 c 0,-0.6576002 -0.0599,-1.1785777 -0.22461,-1.6171877 -0.164679,-0.4386 -0.461531,-0.7885338 -0.83789,-0.9960937 -0.75277,-0.41513 -1.673601,-0.3716388 -2.931692,-0.3867188 h -0.002 -6.0058609 z"
     style="font-style:normal;font-variant:normal;font-weight:normal;font-stretch:normal;font-size:15px;line-height:125%;font-family:Ubuntu;-inkscape-font-specification:Ubuntu;text-align:center;letter-spacing:0px;word-spacing:0px;writing-mode:lr-tb;text-anchor:middle;display:inline;opacity:0.6;fill:#000000;fill-opacity:1;stroke:none;stroke-width:0.99980211" />
  <path
     inkscape:connector-curvature="0"
     id="path1993"
     d="M 7.983343,3.026893 C 6.4267621,3.037689 4.8733531,3.015141 3.3234021,3.065668 2.8621731,3.108336 2.3072141,3.2720874 2.1680621,3.7756348 1.949068,4.4109812 2.0596481,5.1094224 2.0222661,5.7575594 c -0.0078,2.297084 -0.02297,3.596428 0.02152,5.8857796 0.0391,0.461929 0.202551,1.012666 0.698756,1.163666 0.632456,0.225082 1.284144,0.12274 1.935974,0.154298 1.4242349,0.0068 2.850563,0.01102 4.27642,0.01131 1.7045309,3.5e-4 1.4083879,-0.005 3.1071909,-0.01851 0.511912,-0.01201 1.1837,0.01993 1.584746,-0.405191 0.421096,-0.539783 0.287073,-1.268021 0.322744,-1.903786 0.01187,-2.4443236 0.02769,-3.9110956 -0.0219,-6.3567953 C 13.898441,3.8862904 13.777725,3.4253786 13.372578,3.2438555 12.704409,2.9497581 11.946374,3.0758366 11.246657,3.0382828 9.492249,3.0264802 9.737782,3.0257984 7.983343,3.026893 Z"
     style="opacity:1;vector-effect:none;fill:#ffffff;fill-opacity:1;stroke:none;stroke-width:1;stroke-linecap:round;stroke-linejoin:bevel;stroke-miterlimit:4;stroke-dasharray:none;stroke-dashoffset:0;stroke-opacity:1"
     sodipodi:nodetypes="cccccccsccccccc" />
  <path
     d="m 2.9941151,10.999708 h 0.9999999 3 6.000001 V 9.9997078 h -1 V 6.999708 H 8.9941151 V 9.9997078 H 6.994115 V 4.999708 h -3 v 4.9999998 h -1 z"
     id="path2"
     inkscape:connector-curvature="0"
     style="fill:#232629;fill-opacity:1"
     sodipodi:nodetypes="ccccccccccccccc" />
  <rect
     y="-12"
     x="2.0000005"
     height="8"
     width="2"
     id="rect847"
     style="opacity:1;fill:#e95420;fill-opacity:1;fill-rule:evenodd;stroke:none;stroke-width:1.78885436;stroke-linecap:butt;stroke-linejoin:round;stroke-miterlimit:4;stroke-dasharray:none;stroke-opacity:1"
     transform="rotate(90)" />
</svg>

<svg xmlns="http://www.w3.org/2000/svg" viewBox="0 0 16 16"><path d="M4.994 2c-1.258.014-2.179-.03-2.932.384a1.88 1.88 0 00-.837.999C1.06 3.82 1 4.343 1 5v6c0 .658.06 1.179.225 1.617.164.44.461.789.837.997.753.415 1.674.371 2.932.386h6.012c1.258-.014 2.179.03 2.932-.384a1.88 1.88 0 00.837-.999c.165-.438.225-.96.225-1.617V5c0-.658-.06-1.179-.225-1.617a1.875 1.875 0 00-.837-.997c-.753-.415-1.674-.371-2.932-.386H4.998z" style="line-height:125%;-inkscape-font-specification:Ubuntu;text-align:center" font-weight="400" font-size="15" font-family="Ubuntu" letter-spacing="0" word-spacing="0" text-anchor="middle" opacity=".6"/><path d="M7.983 3.027c-1.556.01-3.11-.012-4.66.039-.46.042-1.016.206-1.155.71-.219.635-.108 1.333-.146 1.982-.008 2.297-.023 3.596.022 5.885.039.462.202 1.013.699 1.164.632.225 1.284.123 1.936.154 1.424.007 2.85.011 4.276.012 1.704 0 1.408-.005 3.107-.019.512-.012 1.184.02 1.585-.405.421-.54.287-1.268.323-1.904.011-2.444.027-3.911-.022-6.357-.05-.402-.17-.863-.575-1.044-.669-.294-1.427-.168-2.126-.206-1.755-.012-1.51-.012-3.264-.011z" fill="#fff"/><path d="M2.994 11h10v-1h-1V7h-3v3h-2V5h-3v5h-1z" fill="#232629"/><path fill="#e95420" fill-rule="evenodd" d="M12 2v2H4V2z"/></svg>
